X: 2
T: The Night Before Larry Was Stretched
R: slip jig
M: 9/8
L: 1/8
K: Emin
| : dcB BFB B2 d | cBA AFA cde | dcB BFB B2 d | cde efd cBA : | | : d2f fge f2 e | d2 f fga bge | d2 f fge fga | b2 e efd cBA : |


Tune 4712	Setting 23523

